X: 40969
T: Trip To Dingle, The
R: polka
M: 2/4
K: Dmajor
|:DE/F/ AA|AB F2-|Fd BA|B/c/B/A/ FD|
B,C/B,/ A,B,|DE FA|AB FE|D2 D2:|
Bc/B/ AB|de f2|EF/E/ ED|E/F/E/D/ B,D|
Bc/B/ AB|de fa|a/b/a/g/ fd|e2 e2|
Bc/B/ AB|de f2|EF/E/ ED|E/F/E/D/ B,A,|
B,C/B,/ A,B,|DE FA|AB FE|D2 D2||

